img/svgicons/supermarket.svg

<svg width="37" height="37" viewBox="0 0 37 37" fill="none" xmlns="http://www.w3.org/2000/svg">
<g clip-path="url(#clip0_286_9)">
<path d="M17.2672 10.4833C17.2651 10.2729 17.2268 10.0642 17.1537 9.86667H19.8474C19.7742 10.0642 19.736 10.2729 19.7339 10.4833C19.7339 11.505 20.5622 12.3333 21.5839 12.3333C22.6055 12.3333 23.4339 11.505 23.4339 10.4833C23.4317 10.2729 23.3935 10.0642 23.3203 9.86667H24.0505C24.3685 9.86817 24.6353 9.62789 24.6672 9.31173L25.2839 3.14506C25.3013 2.97102 25.2441 2.79788 25.1267 2.66841C25.0089 2.53923 24.8421 2.46576 24.6672 2.46667H12.6045L12.3278 0.529045C12.2842 0.225529 12.024 0 11.7172 0H9.86719V1.23333H11.1824L12.3399 9.33762C12.3835 9.64114 12.6437 9.86667 12.9505 9.86667H13.6807C13.6075 10.0642 13.5693 10.2729 13.5672 10.4833C13.5672 11.505 14.3955 12.3333 15.4172 12.3333C16.4388 12.3333 17.2672 11.505 17.2672 10.4833V10.4833ZM22.2005 10.4833C22.2005 10.8239 21.9244 11.1 21.5839 11.1C21.2433 11.1 20.9672 10.8239 20.9672 10.4833C20.9672 10.1428 21.2433 9.86667 21.5839 9.86667C21.9244 9.86667 22.2005 10.1428 22.2005 10.4833ZM12.781 3.7H23.9888L23.4956 8.63333H13.4853L12.781 3.7ZM15.4172 11.1C15.0766 11.1 14.8005 10.8239 14.8005 10.4833C14.8005 10.1428 15.0766 9.86667 15.4172 9.86667C15.7577 9.86667 16.0339 10.1428 16.0339 10.4833C16.0339 10.8239 15.7577 11.1 15.4172 11.1Z" fill="#337D5A"/>
<path d="M36.5333 17.285L27.1333 14.9352V12.95C27.1333 12.6095 26.8572 12.3333 26.5167 12.3333H10.4833C10.1428 12.3333 9.86667 12.6095 9.86667 12.95V14.9352L0.466716 17.285C0.192407 17.354 0 17.6006 0 17.8833V36.3833C0 36.7239 0.276115 37 0.616667 37H36.3833C36.7239 37 37 36.7239 37 36.3833V17.8833C37 17.6006 36.8076 17.354 36.5333 17.285ZM1.23333 18.3648L9.86667 16.2065V35.7667H1.23333V18.3648ZM11.1 13.5667H25.9V35.7667H22.8167V30.2167C22.8167 29.8761 22.5406 29.6 22.2 29.6H14.8C14.4594 29.6 14.1833 29.8761 14.1833 30.2167V35.7667H11.1V13.5667ZM15.4167 30.8333H17.8833V35.7667H15.4167V30.8333ZM19.1167 35.7667V30.8333H21.5833V35.7667H19.1167ZM35.7667 35.7667H27.1333V16.2065L35.7667 18.3648V35.7667Z" fill="#337D5A"/>
<path d="M17.2668 28.3667C17.6074 28.3667 17.8835 28.0905 17.8835 27.75V25.2833C17.8835 24.9428 17.6074 24.6667 17.2668 24.6667H12.9502C12.6096 24.6667 12.3335 24.9428 12.3335 25.2833V27.75C12.3335 28.0905 12.6096 28.3667 12.9502 28.3667H17.2668ZM13.5668 25.9H16.6502V27.1333H13.5668V25.9Z" fill="#337D5A"/>
<path d="M19.7339 28.3667H24.0505C24.3911 28.3667 24.6672 28.0905 24.6672 27.75V25.2833C24.6672 24.9428 24.3911 24.6667 24.0505 24.6667H19.7339C19.3933 24.6667 19.1172 24.9428 19.1172 25.2833V27.75C19.1172 28.0905 19.3933 28.3667 19.7339 28.3667ZM20.3505 25.9H23.4338V27.1333H20.3505V25.9Z" fill="#337D5A"/>
<path d="M12.9502 23.4333H17.2668C17.6074 23.4333 17.8835 23.1572 17.8835 22.8167V20.35C17.8835 20.0095 17.6074 19.7333 17.2668 19.7333H12.9502C12.6096 19.7333 12.3335 20.0095 12.3335 20.35V22.8167C12.3335 23.1572 12.6096 23.4333 12.9502 23.4333ZM13.5668 20.9667H16.6502V22.2H13.5668V20.9667Z" fill="#337D5A"/>
<path d="M19.7339 23.4333H24.0505C24.3911 23.4333 24.6672 23.1572 24.6672 22.8167V20.35C24.6672 20.0095 24.3911 19.7333 24.0505 19.7333H19.7339C19.3933 19.7333 19.1172 20.0095 19.1172 20.35V22.8167C19.1172 23.1572 19.3933 23.4333 19.7339 23.4333ZM20.3505 20.9667H23.4338V22.2H20.3505V20.9667Z" fill="#337D5A"/>
<path d="M12.9502 18.5H17.2668C17.6074 18.5 17.8835 18.2239 17.8835 17.8833V15.4167C17.8835 15.0761 17.6074 14.8 17.2668 14.8H12.9502C12.6096 14.8 12.3335 15.0761 12.3335 15.4167V17.8833C12.3335 18.2239 12.6096 18.5 12.9502 18.5ZM13.5668 16.0333H16.6502V17.2666H13.5668V16.0333Z" fill="#337D5A"/>
<path d="M19.7339 18.5H24.0505C24.3911 18.5 24.6672 18.2239 24.6672 17.8833V15.4167C24.6672 15.0761 24.3911 14.8 24.0505 14.8H19.7339C19.3933 14.8 19.1172 15.0761 19.1172 15.4167V17.8833C19.1172 18.2239 19.3933 18.5 19.7339 18.5ZM20.3505 16.0333H23.4338V17.2666H20.3505V16.0333Z" fill="#337D5A"/>
<path d="M28.9839 28.3667H33.9172C34.2577 28.3667 34.5339 28.0905 34.5339 27.75V25.2833C34.5339 24.9428 34.2577 24.6667 33.9172 24.6667H28.9839C28.6433 24.6667 28.3672 24.9428 28.3672 25.2833V27.75C28.3672 28.0905 28.6433 28.3667 28.9839 28.3667ZM29.6005 25.9H33.3005V27.1333H29.6005V25.9Z" fill="#337D5A"/>
<path d="M28.9839 23.4333H33.9172C34.2577 23.4333 34.5339 23.1572 34.5339 22.8167V20.35C34.5339 20.0095 34.2577 19.7333 33.9172 19.7333H28.9839C28.6433 19.7333 28.3672 20.0095 28.3672 20.35V22.8167C28.3672 23.1572 28.6433 23.4333 28.9839 23.4333ZM29.6005 20.9667H33.3005V22.2H29.6005V20.9667Z" fill="#337D5A"/>
<path d="M28.9839 34.5333H33.9172C34.2577 34.5333 34.5339 34.2572 34.5339 33.9166V30.2166C34.5339 29.8761 34.2577 29.6 33.9172 29.6H28.9839C28.6433 29.6 28.3672 29.8761 28.3672 30.2166V33.9166C28.3672 34.2572 28.6433 34.5333 28.9839 34.5333ZM29.6005 30.8333H33.3005V33.3H29.6005V30.8333Z" fill="#337D5A"/>
<path d="M8.01631 24.6667H3.08298C2.74242 24.6667 2.46631 24.9428 2.46631 25.2833V27.75C2.46631 28.0905 2.74242 28.3667 3.08298 28.3667H8.01631C8.35686 28.3667 8.63298 28.0905 8.63298 27.75V25.2833C8.63298 24.9428 8.35686 24.6667 8.01631 24.6667ZM7.39964 27.1333H3.69964V25.9H7.39964V27.1333Z" fill="#337D5A"/>
<path d="M8.01631 19.7333H3.08298C2.74242 19.7333 2.46631 20.0095 2.46631 20.35V22.8167C2.46631 23.1572 2.74242 23.4333 3.08298 23.4333H8.01631C8.35686 23.4333 8.63298 23.1572 8.63298 22.8167V20.35C8.63298 20.0095 8.35686 19.7333 8.01631 19.7333ZM7.39964 22.2H3.69964V20.9667H7.39964V22.2Z" fill="#337D5A"/>
<path d="M8.01631 29.6H3.08298C2.74242 29.6 2.46631 29.8761 2.46631 30.2166V33.9166C2.46631 34.2572 2.74242 34.5333 3.08298 34.5333H8.01631C8.35686 34.5333 8.63298 34.2572 8.63298 33.9166V30.2166C8.63298 29.8761 8.35686 29.6 8.01631 29.6ZM7.39964 33.3H3.69964V30.8333H7.39964V33.3Z" fill="#337D5A"/>
</g>
<defs>
<clipPath id="clip0_286_9">
<rect width="37" height="37" fill="white"/>
</clipPath>
</defs>
</svg>

<svg width="37" height="37" fill="none" xmlns="http://www.w3.org/2000/svg"><g clip-path="url(#a)" fill="#337D5A"><path d="M17.267 10.483a1.83 1.83 0 0 0-.113-.616h2.693a1.827 1.827 0 0 0-.113.616 1.85 1.85 0 0 0 3.7 0 1.83 1.83 0 0 0-.114-.616h.73a.617.617 0 0 0 .617-.555l.617-6.167a.618.618 0 0 0-.617-.678H12.604L12.329.529a.617.617 0 0 0-.61-.529h-1.85v1.233h1.314l1.158 8.105a.617.617 0 0 0 .61.529h.73a1.827 1.827 0 0 0-.113.616 1.85 1.85 0 0 0 3.7 0Zm4.934 0a.617.617 0 1 1-1.234 0 .617.617 0 0 1 1.234 0ZM12.78 3.7h11.208l-.493 4.933h-10.01L12.78 3.7Zm2.636 7.4a.617.617 0 1 1 0-1.233.617.617 0 0 1 0 1.233Z"/><path d="m36.533 17.285-9.4-2.35V12.95a.617.617 0 0 0-.616-.617H10.483a.617.617 0 0 0-.616.617v1.985l-9.4 2.35a.617.617 0 0 0-.467.598v18.5c0 .34.276.617.617.617h35.766c.34 0 .617-.276.617-.617v-18.5a.617.617 0 0 0-.467-.598Zm-35.3 1.08 8.634-2.159v19.56H1.233V18.366Zm9.867-4.798h14.8v22.2h-3.083v-5.55a.617.617 0 0 0-.617-.617h-7.4a.617.617 0 0 0-.617.617v5.55H11.1v-22.2Zm4.317 17.266h2.466v4.934h-2.466v-4.934Zm3.7 4.934v-4.934h2.466v4.934h-2.466Zm16.65 0h-8.634v-19.56l8.634 2.158v17.402Z"/><path d="M17.267 28.367c.34 0 .617-.277.617-.617v-2.467a.617.617 0 0 0-.617-.616H12.95a.617.617 0 0 0-.616.616v2.467c0 .34.276.617.616.617h4.317Zm-3.7-2.467h3.083v1.233h-3.083V25.9ZM19.734 28.367h4.316c.341 0 .617-.277.617-.617v-2.467a.617.617 0 0 0-.617-.616h-4.316a.617.617 0 0 0-.617.616v2.467c0 .34.276.617.617.617Zm.616-2.467h3.084v1.233H20.35V25.9ZM12.95 23.433h4.317c.34 0 .617-.276.617-.616V20.35a.617.617 0 0 0-.617-.617H12.95a.617.617 0 0 0-.616.617v2.467c0 .34.276.616.616.616Zm.617-2.466h3.083V22.2h-3.083v-1.233ZM19.734 23.433h4.316c.341 0 .617-.276.617-.616V20.35a.617.617 0 0 0-.617-.617h-4.316a.617.617 0 0 0-.617.617v2.467c0 .34.276.616.617.616Zm.616-2.466h3.084V22.2H20.35v-1.233ZM12.95 18.5h4.317c.34 0 .617-.276.617-.617v-2.466a.617.617 0 0 0-.617-.617H12.95a.617.617 0 0 0-.616.617v2.466c0 .34.276.617.616.617Zm.617-2.467h3.083v1.234h-3.083v-1.234ZM19.734 18.5h4.316c.341 0 .617-.276.617-.617v-2.466a.617.617 0 0 0-.617-.617h-4.316a.617.617 0 0 0-.617.617v2.466c0 .34.276.617.617.617Zm.616-2.467h3.084v1.234H20.35v-1.234ZM28.984 28.367h4.933c.34 0 .617-.277.617-.617v-2.467a.617.617 0 0 0-.617-.616h-4.933a.617.617 0 0 0-.617.616v2.467c0 .34.276.617.617.617ZM29.6 25.9h3.7v1.233h-3.7V25.9ZM28.984 23.433h4.933c.34 0 .617-.276.617-.616V20.35a.617.617 0 0 0-.617-.617h-4.933a.617.617 0 0 0-.617.617v2.467c0 .34.276.616.617.616Zm.616-2.466h3.7V22.2h-3.7v-1.233ZM28.984 34.533h4.933c.34 0 .617-.276.617-.616v-3.7a.617.617 0 0 0-.617-.617h-4.933a.617.617 0 0 0-.617.617v3.7c0 .34.276.616.617.616Zm.616-3.7h3.7V33.3h-3.7v-2.467ZM8.016 24.667H3.083a.617.617 0 0 0-.617.616v2.467c0 .34.276.617.617.617h4.933c.34 0 .617-.277.617-.617v-2.467a.617.617 0 0 0-.617-.616ZM7.4 27.133H3.7V25.9h3.7v1.233ZM8.016 19.733H3.083a.617.617 0 0 0-.617.617v2.467c0 .34.276.616.617.616h4.933c.34 0 .617-.276.617-.616V20.35a.617.617 0 0 0-.617-.617ZM7.4 22.2H3.7v-1.233h3.7V22.2ZM8.016 29.6H3.083a.617.617 0 0 0-.617.617v3.7c0 .34.276.616.617.616h4.933c.34 0 .617-.276.617-.616v-3.7a.617.617 0 0 0-.617-.617ZM7.4 33.3H3.7v-2.467h3.7V33.3Z"/></g><defs><clipPath id="a"><path fill="#fff" d="M0 0h37v37H0z"/></clipPath></defs></svg>
